X: 1
T: Mouse In The Kitchen
R: jig
M: 6/8
L: 1/8
K: Amaj
|: c3 cde | dcA F2A | E3 ABc | B3 BAB |
c3 cde | dcA F2a | afe fec |1 cBe A3 :|2 cBe Adc||
|: B3 BAB | c3 cBA | B3 BAB | cea zdc |
B3 BAB | c3 cBA | afe fec |1 cBe Adc :|2 cBe A3||


Tune 6655	Setting 18317

